frontend/src/assets/img/discord.svg

<svg xmlns="http://www.w3.org/2000/svg"  viewBox="0 0 50 50" width="50px" height="50px"><path d="M 17.4375 7.3203125 C 17.272981 7.3241502 17.106951 7.3426026 16.941406 7.375 C 14.830442 7.7886277 12.661572 8.5132291 10.462891 9.3945312 C 9.3308784 9.848534 8.3680393 10.634118 7.6953125 11.650391 C 2.6308193 19.300463 1.2046231 27.224894 2.0410156 35.166016 A 1.0001 1.0001 0 0 0 2.5019531 35.908203 C 5.6675599 37.904815 8.9343651 39.648102 12.392578 40.84375 C 13.698136 41.295386 15.153724 40.77198 15.910156 39.613281 L 17.560547 37.083984 C 18.271775 37.281631 19.001472 37.448548 19.740234 37.599609 C 21.425072 38.014654 23.176033 38.244141 24.976562 38.244141 C 26.827668 38.244141 28.627346 38.004377 30.355469 37.566406 C 31.033612 37.423075 31.703333 37.264893 32.359375 37.082031 L 34.085938 39.654297 C 34.84823 40.791176 36.287809 41.296602 37.578125 40.851562 C 41.044527 39.654902 44.319536 37.908837 47.492188 35.908203 A 1.0001 1.0001 0 0 0 47.953125 35.166016 C 48.789518 27.225862 47.364279 19.301435 42.300781 11.652344 A 1.0001 1.0001 0 0 0 42.298828 11.648438 L 42.294922 11.642578 L 42.294922 11.646484 C 41.621932 10.629792 40.657059 9.8453562 39.525391 9.3925781 C 37.327877 8.512353 35.161521 7.7886104 33.052734 7.375 C 31.727797 7.1154142 30.388768 7.7959343 29.771484 9 L 29.587891 9.359375 C 28.321115 9.2144536 26.953472 9.0967918 24.996094 9.1445312 C 23.040183 9.0969182 21.673146 9.2139815 20.40625 9.359375 L 20.222656 9 A 1.0001 1.0001 0 0 0 20.220703 9 C 19.680321 7.9470624 18.589131 7.2934484 17.4375 7.3203125 z M 17.654297 9.3261719 C 17.975412 9.3689854 18.265626 9.5715805 18.441406 9.9140625 L 18.917969 10.841797 A 1.0001 1.0001 0 0 0 19.945312 11.375 C 21.234898 11.197225 22.778201 11.087717 24.972656 11.142578 A 1.0001 1.0001 0 0 0 25.021484 11.142578 C 27.215642 11.087728 28.76015 11.198038 30.050781 11.375 A 1.0001 1.0001 0 0 0 31.076172 10.841797 L 31.552734 9.9140625 C 31.785451 9.4601282 32.226907 9.2514764 32.667969 9.3378906 C 34.597182 9.7162802 36.654764 10.396272 38.78125 11.248047 C 39.540497 11.551425 40.178435 12.069484 40.628906 12.75 A 1.0001 1.0001 0 0 0 40.630859 12.751953 L 40.634766 12.757812 C 45.34034 19.867332 46.67088 27.07165 45.980469 34.470703 C 43.031087 36.301573 40.036314 37.887129 36.925781 38.960938 C 36.488097 39.111897 36.031755 38.964138 35.748047 38.541016 L 34.181641 36.208984 C 34.769653 35.937736 35.348819 35.650224 35.910156 35.330078 A 1.0001 1.0001 0 1 0 34.919922 33.59375 C 33.185327 34.583037 31.308264 35.311357 29.333984 35.753906 C 27.93703 36.004716 26.488437 36.163396 24.966797 36.195312 C 23.503373 36.164522 22.099249 36.01699 20.744141 35.783203 C 18.724447 35.344049 16.806356 34.603914 15.035156 33.59375 A 1.0001 1.0001 0 0 0 14.558594 33.455078 A 1.0001 1.0001 0 0 0 14.042969 35.330078 C 14.59726 35.646206 15.169683 35.9288 15.75 36.197266 L 14.234375 38.519531 C 13.952807 38.950835 13.487317 39.105489 13.046875 38.953125 C 9.9443814 37.880391 6.9558455 36.299347 4.0136719 34.472656 C 3.3227192 27.071086 4.6550343 19.865857 9.3632812 12.753906 C 9.8145545 12.072179 10.449043 11.553997 11.207031 11.25 C 13.33435 10.397302 15.395136 9.7162629 17.326172 9.3378906 C 17.437082 9.3161854 17.547259 9.3119007 17.654297 9.3261719 z M 31.601562 19.912109 C 29.693562 19.912109 28.123047 21.954547 28.123047 24.435547 C 28.123047 26.916547 29.693563 28.957031 31.601562 28.957031 C 33.509563 28.957031 35.078125 26.916547 35.078125 24.435547 C 35.078125 21.954547 33.509562 19.912109 31.601562 19.912109 z M 18.607422 19.992188 C 16.681422 19.992188 15.097656 22.022281 15.097656 24.488281 C 15.097656 26.954281 16.681422 28.982422 18.607422 28.982422 C 20.533422 28.982422 22.119141 26.954281 22.119141 24.488281 C 22.119141 22.022281 20.533422 19.992187 18.607422 19.992188 z"/></svg>

<svg xmlns="http://www.w3.org/2000/svg" xmlns:xlink="http://www.w3.org/1999/xlink" viewBox="0,0,256,256" width="50px" height="50px"><g fill="#ffb4da" fill-rule="nonzero" stroke="none" stroke-width="1" stroke-linecap="butt" stroke-linejoin="miter" stroke-miterlimit="10" stroke-dasharray="" stroke-dashoffset="0" font-family="none" font-weight="none" font-size="none" text-anchor="none" style="mix-blend-mode: normal"><g transform="scale(5.12,5.12)"><path d="M17.4375,7.32031c-0.16452,0.00384 -0.33055,0.02229 -0.49609,0.05469c-2.11096,0.41363 -4.27983,1.13823 -6.47851,2.01953c-1.13201,0.454 -2.09485,1.23959 -2.76758,2.25586c-5.06449,7.65007 -6.49069,15.5745 -5.6543,23.51563c0.03175,0.30497 0.20164,0.57853 0.46094,0.74219c3.16561,1.99661 6.43241,3.7399 9.89062,4.93555c1.30556,0.45164 2.76115,-0.07177 3.51758,-1.23047l1.65039,-2.5293c0.71123,0.19765 1.44093,0.36456 2.17969,0.51563c1.68484,0.41504 3.4358,0.64453 5.23633,0.64453c1.85111,0 3.65078,-0.23976 5.37891,-0.67773c0.67814,-0.14333 1.34786,-0.30151 2.00391,-0.48437l1.72656,2.57227c0.76229,1.13688 2.20187,1.64231 3.49219,1.19727c3.4664,-1.19666 6.74141,-2.94273 9.91406,-4.94336c0.2593,-0.16366 0.42919,-0.43721 0.46094,-0.74219c0.83639,-7.94015 -0.58885,-15.86458 -5.65234,-23.51367c-0.00065,-0.0013 -0.0013,-0.00261 -0.00195,-0.00391l-0.00391,-0.00586v0.00391c-0.67299,-1.01669 -1.63786,-1.80113 -2.76953,-2.25391c-2.19751,-0.88023 -4.36387,-1.60397 -6.47266,-2.01758c-1.32494,-0.25959 -2.66397,0.42093 -3.28125,1.625l-0.18359,0.35938c-1.26678,-0.14492 -2.63442,-0.26258 -4.5918,-0.21484c-1.95591,-0.04761 -3.32295,0.06945 -4.58984,0.21484l-0.18359,-0.35937c-0.00065,0 -0.0013,0 -0.00195,0c-0.54038,-1.05294 -1.63157,-1.70655 -2.7832,-1.67969zM17.6543,9.32617c0.32111,0.04281 0.61133,0.24541 0.78711,0.58789l0.47656,0.92773c0.19436,0.37798 0.60639,0.59182 1.02734,0.5332c1.28959,-0.17778 2.83289,-0.28728 5.02734,-0.23242c0.01627,0.0004 0.03255,0.0004 0.04883,0c2.19416,-0.05485 3.73867,0.05546 5.0293,0.23242c0.42029,0.05774 0.83128,-0.15597 1.02539,-0.5332l0.47656,-0.92773c0.23272,-0.45393 0.67417,-0.66259 1.11523,-0.57617c1.92921,0.37839 3.9868,1.05838 6.11328,1.91016c0.75925,0.30338 1.39719,0.82144 1.84766,1.50195c0.00065,0.00065 0.0013,0.0013 0.00195,0.00195l0.00391,0.00586c4.70557,7.10952 6.03611,14.31384 5.3457,21.71289c-2.94938,1.83087 -5.94416,3.41643 -9.05469,4.49023c-0.43768,0.15096 -0.89403,0.0032 -1.17773,-0.41992l-1.56641,-2.33203c0.58801,-0.27125 1.16718,-0.55876 1.72852,-0.87891c0.32444,-0.16955 0.53033,-0.5028 0.53675,-0.86882c0.00642,-0.36601 -0.18764,-0.70629 -0.50593,-0.88712c-0.31829,-0.18083 -0.70994,-0.17331 -1.02106,0.01961c-1.73459,0.98929 -3.61166,1.71761 -5.58594,2.16016c-1.39695,0.25081 -2.84555,0.40949 -4.36719,0.44141c-1.46342,-0.03079 -2.86755,-0.17832 -4.22266,-0.41211c-2.01969,-0.43915 -3.93778,-1.17929 -5.70898,-2.18945c-0.14468,-0.08553 -0.30858,-0.13323 -0.47656,-0.13867c-0.46191,-0.01481 -0.8738,0.2888 -0.99635,0.7344c-0.12254,0.4456 0.07619,0.91713 0.48072,1.1406c0.55429,0.31613 1.12671,0.59872 1.70703,0.86719l-1.51562,2.32227c-0.28157,0.4313 -0.74706,0.58596 -1.1875,0.43359c-3.10249,-1.07273 -6.09103,-2.65378 -9.0332,-4.48047c-0.69095,-7.40157 0.64136,-14.6068 5.34961,-21.71875c0.45127,-0.68173 1.08576,-1.19991 1.84375,-1.50391c2.12732,-0.8527 4.18811,-1.53374 6.11914,-1.91211c0.11091,-0.02171 0.22109,-0.02599 0.32813,-0.01172zM31.60156,19.91211c-1.908,0 -3.47852,2.04244 -3.47852,4.52344c0,2.481 1.57052,4.52148 3.47852,4.52148c1.908,0 3.47656,-2.04048 3.47656,-4.52148c0,-2.481 -1.56856,-4.52344 -3.47656,-4.52344zM18.60742,19.99219c-1.926,0 -3.50977,2.03009 -3.50977,4.49609c0,2.466 1.58377,4.49414 3.50977,4.49414c1.926,0 3.51172,-2.02814 3.51172,-4.49414c0,-2.466 -1.58572,-4.49609 -3.51172,-4.49609z"></path></g></g></svg>
